!!!OTL: Rose of Britain's Isle
!!!ONM: 48.
**kern
*clefG2
*k[f#c#g#]
*A:
*M4/4
*MM112
{4e
=1
4.a
8g#
8a
4.e
=2
4.f#
8a
4e}
{4A
=3
4B
4c#
4A
4G#
=4
2A
4r}
{4e
=5
4.a
8g#
4g#
4b
=6
4a
(8a
8f#)
(8e
8c#)}
{4e
=7
4.e
8f#
(8e
8c#)
(8A
8c#)
=8
2e
4r}
{4e
=9
4.a
8g#
4a
4b
=10
4a
(8a
8f#)
(8e
8c#)}
{(8A
8c#)
=11
4.e
8f#
(8e
8c#)
(8A
8c#)
=12
2e
4r}
{4c#
=13
4.d
8c#
4e
(8f#
8g#)
=14
4.a
8e
(8f#
8e)}
{8A
8A
=15
4.B
8c#
4A
4G#
=16
2.A}
==
*-
!!!CNT: Folksongs of Maritime Canada
!!!MRD: 1928///-1932///
!!!OCL: Helen Creighton
!!!YOR: Songs and Ballads from Nova Scotia
!!!PPR: J.M. Dent & Sons, Limited
!!!PPP: Toronto, Canada
!!!PDT: 1932///
!!!reprint: Dover Publications, 1992: ISBN 0-486-21703-5
!!!ENC1: Craig Stuart Sapp (music and bibliographic data)                       
!!!ENC2: Marcus Pearce (phrase markings and key designations)                   
!!!ENC3: Darrell Conklin (phrase markings and key designations)   
!!!END: 2002/04/10/
!!!EEV: 2004/06/05
!!!MPN: Mr. Ben Henneberry
!!!PPG: 96
!!!EFL: 49/152
!!!ARE: Canada; Nova Scotia
!!!verses: 7
!!!VTS: 3802809652
